img/icons/icon_number.svg

<?xml version="1.0" encoding="UTF-8"?><svg id="Layer_1" xmlns="http://www.w3.org/2000/svg" viewBox="0 0 512 512"><defs><style>.cls-1{fill:#231f20;}.cls-2{fill:none;stroke:#231f20;stroke-miterlimit:10;}</style></defs><g><path class="cls-1" d="m76.91,162.27c5.1-8.74,11.71-16.02,19.84-21.84,8.13-5.82,17.29-10.19,27.48-13.1,10.19-2.91,20.5-4.37,30.94-4.37,15.77,0,29.12,2.43,40.04,7.28,10.92,4.86,19.71,10.74,26.39,17.65,6.67,6.92,11.47,14.32,14.38,22.2,2.91,7.89,4.37,14.99,4.37,21.29,0,12.62-3.09,23.66-9.28,33.12-6.19,9.46-15.47,16.26-27.85,20.38v.73c15.29,3.4,27.06,10.62,35.31,21.66,8.25,11.04,12.38,24.57,12.38,40.59,0,13.59-2.73,25.36-8.19,35.31-5.46,9.95-12.68,18.2-21.66,24.75-8.98,6.55-19.17,11.47-30.58,14.74-11.41,3.28-23.06,4.91-34.94,4.91s-24.33-1.52-35.85-4.55c-11.53-3.03-21.84-7.83-30.94-14.38s-16.38-14.8-21.84-24.75c-5.46-9.95-8.19-21.84-8.19-35.67,0-16.25,4.19-29.85,12.56-40.77,8.37-10.92,20.2-18.2,35.49-21.84v-.73c-12.38-3.4-21.72-9.83-28.03-19.29-6.31-9.46-9.46-20.5-9.46-33.12,0-11.4,2.55-21.48,7.64-30.21Zm37.13,161.25c2.42,5.34,5.64,9.89,9.65,13.65,4,3.77,8.79,6.68,14.38,8.74,5.58,2.06,11.4,3.09,17.47,3.09s12.07-1.03,17.29-3.09c5.22-2.06,9.83-4.97,13.83-8.74,4-3.76,7.1-8.31,9.28-13.65,2.18-5.33,3.28-11.16,3.28-17.47s-1.15-11.58-3.46-16.56c-2.31-4.97-5.46-9.28-9.46-12.92-4-3.64-8.62-6.43-13.83-8.37-5.22-1.94-10.86-2.91-16.93-2.91-12.62,0-23.3,3.46-32.03,10.37-8.74,6.92-13.1,16.93-13.1,30.03,0,6.55,1.21,12.5,3.64,17.84Zm13.83-101.37c7.76,5.7,16.86,8.55,27.3,8.55s20.02-2.85,27.3-8.55c7.28-5.7,10.92-14.01,10.92-24.93,0-3.4-.49-7.1-1.46-11.1-.97-4-2.86-7.83-5.64-11.47-2.79-3.64-6.68-6.67-11.65-9.1-4.98-2.42-11.47-3.64-19.47-3.64-5.1,0-10.01.79-14.74,2.37-4.73,1.58-8.92,3.82-12.56,6.73-3.64,2.91-6.5,6.55-8.55,10.92-2.06,4.37-3.09,9.46-3.09,15.29,0,10.92,3.88,19.24,11.65,24.93Z"/><path class="cls-1" d="m279.3,162.27c5.1-8.74,11.71-16.02,19.84-21.84,8.13-5.82,17.29-10.19,27.48-13.1,10.19-2.91,20.5-4.37,30.94-4.37,15.77,0,29.12,2.43,40.04,7.28,10.92,4.86,19.71,10.74,26.39,17.65,6.67,6.92,11.47,14.32,14.38,22.2,2.91,7.89,4.37,14.99,4.37,21.29,0,12.62-3.09,23.66-9.28,33.12-6.19,9.46-15.47,16.26-27.85,20.38v.73c15.29,3.4,27.06,10.62,35.31,21.66,8.25,11.04,12.38,24.57,12.38,40.59,0,13.59-2.73,25.36-8.19,35.31-5.46,9.95-12.68,18.2-21.66,24.75-8.98,6.55-19.17,11.47-30.58,14.74-11.41,3.28-23.06,4.91-34.94,4.91s-24.33-1.52-35.85-4.55c-11.53-3.03-21.84-7.83-30.94-14.38s-16.38-14.8-21.84-24.75c-5.46-9.95-8.19-21.84-8.19-35.67,0-16.25,4.19-29.85,12.56-40.77,8.37-10.92,20.2-18.2,35.49-21.84v-.73c-12.38-3.4-21.72-9.83-28.03-19.29-6.31-9.46-9.46-20.5-9.46-33.12,0-11.4,2.55-21.48,7.64-30.21Zm37.13,161.25c2.42,5.34,5.64,9.89,9.65,13.65,4,3.77,8.79,6.68,14.38,8.74,5.58,2.06,11.4,3.09,17.47,3.09s12.07-1.03,17.29-3.09c5.22-2.06,9.83-4.97,13.83-8.74,4-3.76,7.1-8.31,9.28-13.65,2.18-5.33,3.28-11.16,3.28-17.47s-1.15-11.58-3.46-16.56c-2.31-4.97-5.46-9.28-9.46-12.92-4-3.64-8.62-6.43-13.83-8.37-5.22-1.94-10.86-2.91-16.93-2.91-12.62,0-23.3,3.46-32.03,10.37-8.74,6.92-13.1,16.93-13.1,30.03,0,6.55,1.21,12.5,3.64,17.84Zm13.83-101.37c7.76,5.7,16.86,8.55,27.3,8.55s20.02-2.85,27.3-8.55c7.28-5.7,10.92-14.01,10.92-24.93,0-3.4-.49-7.1-1.46-11.1-.97-4-2.86-7.83-5.64-11.47-2.79-3.64-6.68-6.67-11.65-9.1-4.98-2.42-11.47-3.64-19.47-3.64-5.1,0-10.01.79-14.74,2.37-4.73,1.58-8.92,3.82-12.56,6.73-3.64,2.91-6.5,6.55-8.55,10.92-2.06,4.37-3.09,9.46-3.09,15.29,0,10.92,3.88,19.24,11.65,24.93Z"/></g><rect class="cls-2" width="512" height="512"/></svg>

<?xml version="1.0" encoding="UTF-8" standalone="no"?>
<!DOCTYPE svg PUBLIC "-//W3C//DTD SVG 1.1//EN" "http://www.w3.org/Graphics/SVG/1.1/DTD/svg11.dtd">
<svg width="100%" height="100%" viewBox="0 0 512 512" version="1.1" xmlns="http://www.w3.org/2000/svg" xmlns:xlink="http://www.w3.org/1999/xlink" xml:space="preserve" xmlns:serif="http://www.serif.com/" style="fill-rule:evenodd;clip-rule:evenodd;stroke-linejoin:round;stroke-miterlimit:2;">
    <g transform="matrix(1.29753,0,0,1.29753,-76.1711,-75.9494)">
        <path d="M76.91,162.27C82.01,153.53 88.62,146.25 96.75,140.43C104.88,134.61 114.04,130.24 124.23,127.33C134.42,124.42 144.73,122.96 155.17,122.96C170.94,122.96 184.29,125.39 195.21,130.24C206.13,135.1 214.92,140.98 221.6,147.89C228.27,154.81 233.07,162.21 235.98,170.09C238.89,177.98 240.35,185.08 240.35,191.38C240.35,204 237.26,215.04 231.07,224.5C224.88,233.96 215.6,240.76 203.22,244.88L203.22,245.61C218.51,249.01 230.28,256.23 238.53,267.27C246.78,278.31 250.91,291.84 250.91,307.86C250.91,321.45 248.18,333.22 242.72,343.17C237.26,353.12 230.04,361.37 221.06,367.92C212.08,374.47 201.89,379.39 190.48,382.66C179.07,385.94 167.42,387.57 155.54,387.57C143.66,387.57 131.21,386.05 119.69,383.02C108.16,379.99 97.85,375.19 88.75,368.64C79.65,362.09 72.37,353.84 66.91,343.89C61.45,333.94 58.72,322.05 58.72,308.22C58.72,291.97 62.91,278.37 71.28,267.45C79.65,256.53 91.48,249.25 106.77,245.61L106.77,244.88C94.39,241.48 85.05,235.05 78.74,225.59C72.43,216.13 69.28,205.09 69.28,192.47C69.28,181.07 71.83,170.99 76.92,162.26L76.91,162.27ZM114.04,323.52C116.46,328.86 119.68,333.41 123.69,337.17C127.69,340.94 132.48,343.85 138.07,345.91C143.65,347.97 149.47,349 155.54,349C161.61,349 167.61,347.97 172.83,345.91C178.05,343.85 182.66,340.94 186.66,337.17C190.66,333.41 193.76,328.86 195.94,323.52C198.12,318.19 199.22,312.36 199.22,306.05C199.22,299.74 198.07,294.47 195.76,289.49C193.45,284.52 190.3,280.21 186.3,276.57C182.3,272.93 177.68,270.14 172.47,268.2C167.25,266.26 161.61,265.29 155.54,265.29C142.92,265.29 132.24,268.75 123.51,275.66C114.77,282.58 110.41,292.59 110.41,305.69C110.41,312.24 111.62,318.19 114.05,323.53L114.04,323.52ZM127.87,222.15C135.63,227.85 144.73,230.7 155.17,230.7C165.61,230.7 175.19,227.85 182.47,222.15C189.75,216.45 193.39,208.14 193.39,197.22C193.39,193.82 192.9,190.12 191.93,186.12C190.96,182.12 189.07,178.29 186.29,174.65C183.5,171.01 179.61,167.98 174.64,165.55C169.66,163.13 163.17,161.91 155.17,161.91C150.07,161.91 145.16,162.7 140.43,164.28C135.7,165.86 131.51,168.1 127.87,171.01C124.23,173.92 121.37,177.56 119.32,181.93C117.26,186.3 116.23,191.39 116.23,197.22C116.23,208.14 120.11,216.46 127.88,222.15L127.87,222.15Z" style="fill:white;fill-rule:nonzero;"/>
        <path d="M279.3,162.27C284.4,153.53 291.01,146.25 299.14,140.43C307.27,134.61 316.43,130.24 326.62,127.33C336.81,124.42 347.12,122.96 357.56,122.96C373.33,122.96 386.68,125.39 397.6,130.24C408.52,135.1 417.31,140.98 423.99,147.89C430.66,154.81 435.46,162.21 438.37,170.09C441.28,177.98 442.74,185.08 442.74,191.38C442.74,204 439.65,215.04 433.46,224.5C427.27,233.96 417.99,240.76 405.61,244.88L405.61,245.61C420.9,249.01 432.67,256.23 440.92,267.27C449.17,278.31 453.3,291.84 453.3,307.86C453.3,321.45 450.57,333.22 445.11,343.17C439.65,353.12 432.43,361.37 423.45,367.92C414.47,374.47 404.28,379.39 392.87,382.66C381.46,385.94 369.81,387.57 357.93,387.57C346.05,387.57 333.6,386.05 322.08,383.02C310.55,379.99 300.24,375.19 291.14,368.64C282.04,362.09 274.76,353.84 269.3,343.89C263.84,333.94 261.11,322.05 261.11,308.22C261.11,291.97 265.3,278.37 273.67,267.45C282.04,256.53 293.87,249.25 309.16,245.61L309.16,244.88C296.78,241.48 287.44,235.05 281.13,225.59C274.82,216.13 271.67,205.09 271.67,192.47C271.67,181.07 274.22,170.99 279.31,162.26L279.3,162.27ZM316.43,323.52C318.85,328.86 322.07,333.41 326.08,337.17C330.08,340.94 334.87,343.85 340.46,345.91C346.04,347.97 351.86,349 357.93,349C364,349 370,347.97 375.22,345.91C380.44,343.85 385.05,340.94 389.05,337.17C393.05,333.41 396.15,328.86 398.33,323.52C400.51,318.19 401.61,312.36 401.61,306.05C401.61,299.74 400.46,294.47 398.15,289.49C395.84,284.52 392.69,280.21 388.69,276.57C384.69,272.93 380.07,270.14 374.86,268.2C369.64,266.26 364,265.29 357.93,265.29C345.31,265.29 334.63,268.75 325.9,275.66C317.16,282.58 312.8,292.59 312.8,305.69C312.8,312.24 314.01,318.19 316.44,323.53L316.43,323.52ZM330.26,222.15C338.02,227.85 347.12,230.7 357.56,230.7C368,230.7 377.58,227.85 384.86,222.15C392.14,216.45 395.78,208.14 395.78,197.22C395.78,193.82 395.29,190.12 394.32,186.12C393.35,182.12 391.46,178.29 388.68,174.65C385.89,171.01 382,167.98 377.03,165.55C372.05,163.13 365.56,161.91 357.56,161.91C352.46,161.91 347.55,162.7 342.82,164.28C338.09,165.86 333.9,168.1 330.26,171.01C326.62,173.92 323.76,177.56 321.71,181.93C319.65,186.3 318.62,191.39 318.62,197.22C318.62,208.14 322.5,216.46 330.27,222.15L330.26,222.15Z" style="fill:white;fill-rule:nonzero;"/>
    </g>
</svg>
